X:1
T:All for Me
T:All for Me
T:D. Hayden Lloyd
T:D. Hayden Lloyd, 1876
T:Public Domain Courtesy of the Cyber Hymnal™
C:D. Hayden Lloyd
Z:Public Domain
Z:Courtesy of the Cyber Hymnal™
%%score ( 1 2 ) ( 3 4 )
L:1/8
Q:1/4=90
M:3/4
K:F
V:1 treble 
V:2 treble 
V:3 bass 
V:4 bass 
V:1
 [FA][GB] | [Ac]3 [FA] [EG][EA] | F4 [FA][FA] | [EG]3 [Ec] [Ge][Fd] | [Ec]4 [FA][GB] | %5
w: 1.~Suff- ering|Sav- ior, with thorn|crown, Bruised and|bleed- ing, sink- ing|down; Hea- vy|
w: 2.~Pre- cious|Sav- ior, this for|me, So un-|wor- thy, all for|me; Ho- ly|
w: 3.~Fain would|I to Thee be|brought; Gra- cious|Lord, for- bid it|not; In the|
 [Ac]3 [Af] [Ac][FA] | [EG]4 [EG][FA] | [EB]3 [EG] [Ec][EB] | [FA]4 !fermata![FA]>[EG] | %9
w: la- den, wea- ry|worn, Faint- ing,|dy- ing, crushed and|torn. All for|
w: Je- sus, pure and|mild, I would|ev- er be Thy|child. Oh bless|
w: king- dom of Thy|grace, Give Thy|wan- dering child a|place, By Thy|
 [DF]3 z !fermata![B,D]>[B,E] | [A,F]4 |] %11
w: me, all for|me.|
w: me, ev- en|me.|
w: grace, Oh save|me.|
V:2
 x2 | x6 | F4 x2 | x6 | x6 | x6 | x6 | x6 | x6 | x6 | x4 |] %11
V:3
 [F,C][F,C] | [F,F]3 [F,C] [C,C][C,B,] | [F,A,]4 [F,C][F,C] | [C,C]3 [C,C] [G,C][G,=B,] | %4
 [C,C]4 [F,C][F,C] | [F,F]3 [F,C] [F,F][F,C] | [C,C]4 [C,C][C,C] | [C,G,]3 [C,C] [C,C][C,C] | %8
 [F,C]4 [F,C]>[C,B,] | [D,A,]3 z [B,,G,]>[C,G,] | F,4 |] %11
V:4
 x2 | x6 | x6 | x6 | x6 | x6 | x6 | x6 | x6 | x6 | F,4 |] %11

